X: 4
I: linebreak $
T: Damesyn
T: for three
C: 
C: Music for This enderis day
P: AAA B CC D
N: 
K: C major
M: 6/4
L: 1/8
P: A
"^Drone: C"G2GAG3FEDC2 | F3GA2 AFE2D2 "^(3)":| G2
P: B
GAG2 GFEDC2 | G3AG2 GED2C2 |: 
M: 6/8
P: C
D2E F2D | E2F G3 | E2F G2E | G2G E3 | A3 G3 | F3 E3 :| 
P: D
EFG ED2 | C6 |] 

